X:1
T:Title
%%score { ( 1 3 ) | 2 }
L:1/8
M:4/4
K:D
V:1 treble nm="Grand Piano"
V:3 treble 
V:2 bass 
V:1
 z4 z2 z[Q:1/4=100] [FA] | [Fd]2 [Gd]2 [Ad]2 [FA][FA] | [Ac]2 [GB]2 [FA]4 | [FA]3 A EF[EG][CGB] | %4
 A4 z4 | [Fd]2 [Gd]2 [Ad]2 [FA][FA] | [DAc]2 [DGB]2 [DFA]4 | [DFA]3 [DFA] [CE][CEG][DF][G,CE] | %8
 D8 | [DFA]4 [CGA]3 [CEG] | FFGG A4 | G3 G cB[FA][EG] | [DF]2 [EG]2 z4 | %13
 [Fd]2 [Gd]2 [Ad]2 [FA][FA] | [DAc]2 [DGB]2 [DFA]4 | [DFA]3 [DFA] [CE][CEG][DF][G,CE] | %16
[M:7/8] D-D-D- D- D3 |] %17
V:2
 z4 z2 z [D,A,] | [D,A,]2 [E,A,]2 [F,A,]2 [D,D][D,D] | [G,D]2 [G,D]2 [D,D]4 | %3
 [D,D]3 [F,DF] [A,C][A,D][A,,A,][A,,A,] | [D,D][D,D][D,D][D,D] [D,A,]3 [D,A,] | %5
 [D,A,]2 [E,A,]2 [F,A,]2 [D,D][D,D] | G,2 G,2 D,4 | D,3 F, A,A,A,,A,, | %8
 [D,F,][D,F,][D,G,][D,G,] [D,F,]4 | D,4 E,3 A,, | [D,D][D,D][E,A,D][E,A,D] [F,D]4 | %11
 [A,CE]3 [A,CE] [A,A][A,G][K:bass][A,,A,][A,,A,] | [D,A,]D,D,D, [D,D]3 [D,D] | %13
 [D,A,]2 [E,A,]2 [F,D]2 [D,D][D,D] | G,2 G,2 D,4 | D,3 F, A,A,A,,A,, | %16
[M:7/8] [D,F,][D,F,][D,G,] [D,G,] [D,F,]3 |] %17
V:3
 x8 | x8 | x8 | x8 | FFFF [DF]3 [FA] | x8 | x8 | x8 | z A,B,B, A,4 | x8 | x8 | x8 | %12
 z A,A,A, [FA]3 [FA] | x8 | x8 | x8 |[M:7/8] z A,B, B, A,3 |] %17

